src/4-icons/search.svg

<svg width="260" height="260" viewBox="0 0 260 260" fill="none" xmlns="http://www.w3.org/2000/svg"><path fill-rule="evenodd" clip-rule="evenodd" d="M26 92c0 50.81 41.19 92 92 92 10.385 0 20.369-1.721 29.681-4.893l40.819 70.701c5.523 9.566 17.755 12.844 27.321 7.321l1.732-1c9.565-5.523 12.843-17.755 7.32-27.321l-41.571-72.003C199.805 140.176 210 117.279 210 92c0-50.81-41.19-92-92-92S26 41.19 26 92Zm14 0c0 43.078 34.922 78 78 78s78-34.922 78-78-34.922-78-78-78-78 34.922-78 78Zm122.125 84.124 12.124-7 38 65.818a7 7 0 1 1-12.124 7l-38-65.818Z" fill="#000"/></svg>

<svg width="260" height="260" viewBox="0 0 260 260" fill="none" xmlns="http://www.w3.org/2000/svg">
<path fill-rule="evenodd" clip-rule="evenodd" d="M26 92C26 142.81 67.1898 184 118 184C128.385 184 138.369 182.279 147.681 179.107L188.5 249.808C194.023 259.374 206.255 262.652 215.821 257.129L217.553 256.129C227.118 250.606 230.396 238.374 224.873 228.808L183.302 156.805C199.805 140.176 210 117.279 210 92C210 41.1898 168.81 0 118 0C67.1898 0 26 41.1898 26 92ZM40 92C40 135.078 74.9218 170 118 170C161.078 170 196 135.078 196 92C196 48.9218 161.078 14 118 14C74.9218 14 40 48.9218 40 92ZM162.125 176.124L174.249 169.124L212.249 234.942C214.182 238.29 213.035 242.571 209.687 244.504C206.339 246.437 202.058 245.29 200.125 241.942L162.125 176.124Z" fill="black"/>
</svg>
